X: 721
T: Duffy the Dancer   #2
R: reel
%S: s:4 b:16(4+4+4+4)
B: Francis O'Neill: "The Dance Music of Ireland" (1907) #721
Z: Frank Nordberg - http://www.musicaviva.com
F: http://www.musicaviva.com/abc/tunes/ireland/oneill-1001/0721/oneill-1001-0721-1.abc
%m: Tn2 = (3n/o/n/ m/n/
%%slurgraces 1
%%graceslurs 1
M: C|
L: 1/8
K: Ador
e "^A"|: Ta2(ea) cAAd | cAeA cAAe |[1 Ta2(ea) cAAd | BGdc BGBd :|[2 Tg2(fg) {b}aefd | BGdc BGG |]
e "^B"|: cAeA fAeA | cAeA cAA [1 d | cAeA fAeA | BGdc BGGd :|[2 e | Tg2(fg) {b}aefd | BGdc BG G |]
